X: 1
T: Bull Frog Reel
P: piffero primo a0806
O: Dave Gregory
%R: reel
F: http://ancients.sudburymuster.org/mus/sng/pdf/bullfrogC0.pdf
Z: 2020 John Chambers <jc:trillian.mit.edu>
N: Should the 2nd strain be in A major?
M: 2/4
L: 1/16
K: D
(3ABc |\
d2f2 d2cB | AdF2 D2A2 | AceA fAeA | dAFA E2(3ABc |\
d2f2 d2cB | AdF2 D2A2 | AceA fAeA | d2f2 d2 :|
|: z2 |\
AceA c2Ac | eAce Ace2 | EBdE B2EB | dEBd EBd2 |\
AceA ceAc | eAce Ace2 | EBdE dcBE | G2B2 G2 :|
